X:1
T:Step It Out, Nancy
M:4/4
L:1/4
K:G
 G/2G/2 A| B e e e| d B B/2B/2 B| B e e d| B2 G/2G/2 A| B e e e| d B B B|\
 B B/2B/2 A F| E2|

